svgs/duotone/book-tanakh.svg

<svg xmlns="http://www.w3.org/2000/svg" viewBox="0 0 448 512"><!-- Font Awesome Pro 6.0.0-alpha2 by @fontawesome - https://fontawesome.com License - https://fontawesome.com/license (Commercial License) --><defs><style>.fa-secondary{opacity:.4}</style></defs><path d="M352 384C369.674 384 384 398.326 384 416C384 433.672 369.674 448 352 448H32V384H352Z" class="fa-secondary"/><path d="M131.5 168.625L114 139.5H148.875L131.5 168.625ZM114 244.5H148.875L131.375 215.375L114 244.5ZM208 296.625L224.875 268.5H191.25L208 296.625ZM208 87.375L191.25 115.5H224.75L208 87.375ZM239.125 139.375H176.875L145.375 192L176.875 244.5H239.125L270.625 192L239.125 139.375ZM302 139.5H267.125L284.625 168.625L302 139.5ZM448 96V416C448 469.02 405.02 512 352 512H24C10.746 512 0 501.254 0 488V472C0 458.744 10.746 448 24 448H352C369.674 448 384 433.672 384 416C384 398.326 369.674 384 352 384H24C10.746 384 0 373.254 0 360V32C0 14.326 14.326 0 32 0H352C405.02 0 448 42.98 448 96ZM326.375 238.375L298.625 192L326.25 145.75C330 139.5 330 131.875 326.5 125.625C323 119.375 316.375 115.5 309.125 115.5H252.75L225 69.125C221.5 63.125 215 59.5 208 59.5S194.375 63.25 190.75 69.25L163.25 115.5H106.875C99.625 115.375 93 119.25 89.375 125.625C85.875 131.75 85.875 139.5 89.625 145.625L117.375 192L89.75 238.25C86.125 244.5 86 252.125 89.5 258.375C93 264.625 99.75 268.5 106.875 268.5H163.25L191 314.875C194.5 320.875 201 324.5 208 324.5C215.125 324.5 221.625 320.75 225.25 314.75L252.75 268.625H309.125C316.375 268.625 323 264.75 326.625 258.375C330.125 252.25 330.125 244.5 326.375 238.375ZM267.125 244.5H302L284.625 215.375L267.125 244.5Z" class="fa-primary"/></svg>

<svg xmlns="http://www.w3.org/2000/svg" viewBox="0 0 448 512"><!--! Font Awesome Pro 6.3.0 by @fontawesome - https://fontawesome.com License - https://fontawesome.com/license (Commercial License) Copyright 2023 Fonticons, Inc. --><defs><style>.fa-secondary{opacity:.4}</style></defs><path class="fa-primary" d="M131.5 168.6L113.1 139.5h34.88L131.5 168.6zM113.1 244.5h34.88l-17.5-29.12L113.1 244.5zM208 296.6l16.88-28.12H191.3L208 296.6zM208 87.38L191.3 115.5h33.5L208 87.38zM239.1 139.4H176.9L145.4 192l31.5 52.5h62.25L270.6 192L239.1 139.4zM301.1 139.5h-34.87l17.5 29.12L301.1 139.5zM448 96v320c0 53.02-42.98 96-96 96h-320C14.33 512 0 497.7 0 480C0 462.3 14.33 448 31.1 448h318.3c15.94 0 30.71-10.89 33.27-26.63C386.8 401.3 371.4 384 352 384H48C21.49 384 0 362.5 0 336v-288C0 21.49 21.49 0 48 0H352C405 0 448 42.98 448 96zM326.4 238.4L298.6 192l27.62-46.25c3.75-6.25 3.75-13.88 .25-20.12C323 119.4 316.4 115.5 309.1 115.5h-56.38L225 69.13C221.5 63.13 215 59.5 208 59.5S194.4 63.25 190.8 69.25L163.3 115.5H106.9C99.63 115.4 93 119.3 89.38 125.6c-3.5 6.125-3.5 13.88 .25 20L117.4 192L89.75 238.3C86.13 244.5 85.1 252.1 89.5 258.4C93 264.6 99.75 268.5 106.9 268.5h56.38L191 314.9c3.5 6 10 9.625 17 9.625c7.125 0 13.62-3.75 17.25-9.75l27.5-46.13h56.38c7.25 0 13.88-3.875 17.5-10.25C330.1 252.3 330.1 244.5 326.4 238.4zM267.1 244.5h34.87l-17.37-29.12L267.1 244.5z"/><path class="fa-secondary" d="M48 384H352c17.67 0 32 14.33 32 32c0 17.67-14.33 32-32 32h-320L32 381.1C37.03 382.8 42.36 384 48 384z"/></svg>
